**kern	**text	**kern	**text	**kern	**text	**kern	**text	**kern	**text
*staff5	*staff5	*staff4	*staff4	*staff3	*staff3	*staff2	*staff2	*staff1	*staff1
*I"Basso	*	*I"Tenore	*	*I"Alto	*	*I"Soprano II	*	*I"Soprano I	*
=1-	=1-	=1-	=1-	=1-	=1-	=1-	=1-	=1-	=1-
*clefF4	*	*clefGv2	*	*clefGv2	*	*clefG2	*	*clefG2	*
*k[b-]	*	*k[b-]	*	*k[b-]	*	*k[b-]	*	*k[b-]	*
*met(c|)	*	*met(c|)	*	*met(c|)	*	*met(c|)	*	*met(c|)	*
*M2/2	*	*M2/2	*	*M2/2	*	*M2/2	*	*M2/2	*
[1F	In	1r	.	[1A	In	1r	.	[1c	In
=2	=2	=2	=2	=2	=2	=2	=2	=2	=2
1F]	.	[1F	In	1A_	.	1r	.	1c]	.
=3	=3	=3	=3	=3	=3	=3	=3	=3	=3
1D	mon-	1F]	.	1A]	.	1r	.	1d	mon-
=4	=4	=4	=4	=4	=4	=4	=4	=4	=4
1C	-te	1G	mon-	1c	mon-	1r	.	1e	-te
=5	=5	=5	=5	=5	=5	=5	=5	=5	=5
1F	O-	1A	-te	1c	-te	1r	.	[1f	O-
=6	=6	=6	=6	=6	=6	=6	=6	=6	=6
1BB-	-li-	[1B-	O-	1d	O-	1r	.	1f]	.
=7	=7	=7	=7	=7	=7	=7	=7	=7	=7
2.D\	-ve-	1B-]	.	1d	-li-	1r	.	1f	.
4E\	.	.	.	.	.	.	.	.	.
=8	=8	=8	=8	=8	=8	=8	=8	=8	=8
1F	.	1A	-li-	2.c\	-ve-	1r	.	1f	-li-
.	.	.	.	4d\	.	.	.	.	.
=9	=9	=9	=9	=9	=9	=9	=9	=9	=9
[1C	.	[1c	-ve-	2e\	.	1r	.	[1g	-ve-
.	.	.	.	[2f\	.	.	.	.	.
=10	=10	=10	=10	=10	=10	=10	=10	=10	=10
1C]	.	1c]	.	2f\]	.	1r	.	1g]	.
.	.	.	.	2e\	.	.	.	.	.
=11	=11	=11	=11	=11	=11	=11	=11	=11	=11
1F	-ti	1c	-ti	1f	-ti	1r	.	1a	-ti
=12	=12	=12	=12	=12	=12	=12	=12	=12	=12
!!linebreak:original
2r	.	2r	.	2r	.	1r	.	2r	.
2BB-/	o-	2B-\	o-	2d\	o-	.	.	2f/	o-
=13	=13	=13	=13	=13	=13	=13	=13	=13	=13
1E-	-ra-	1B-	-ra-	1e-	-ra-	1r	.	1g	-ra-
=14	=14	=14	=14	=14	=14	=14	=14	=14	=14
1BB-	-vit	[1B-	-vit	[1d	-vit	1r	.	[1f	-vit
=15	=15	=15	=15	=15	=15	=15	=15	=15	=15
1D	ad	2B-\]	.	2d\]	.	1r	.	2f/]	.
.	.	2B-\	ad	2d\	ad	.	.	2f/	ad
=16	=16	=16	=16	=16	=16	=16	=16	=16	=16
1C	Pa-	1c	Pa-	2G/	Pa-	1r	.	1e-	Pa-
.	.	.	.	2A/	.	.	.	.	.
=17	=17	=17	=17	=17	=17	=17	=17	=17	=17
1BB-	-trem:	1F	-trem:	1B-	-trem:	1r	.	1d	-trem:
=18	=18	=18	=18	=18	=18	=18	=18	=18	=18
2r	.	2r	.	2r	.	1r	.	2r	.
[2GG/	Pa-	[2B-\	Pa-	[2d\	Pa-	.	.	[2g/	Pa-
=19	=19	=19	=19	=19	=19	=19	=19	=19	=19
2GG/]	.	2B-\]	.	2d\]	.	1r	.	2g/]	.
2D\	-ter,	2A/	-ter,	2d\	-ter,	.	.	2f#/	-ter,
=20	=20	=20	=20	=20	=20	=20	=20	=20	=20
2G\	si	2B-\	si	2d\	si	1r	.	2g/	si
[2F\	fi-	[2c\	fi-	[2f\	fi-	.	.	[2a/	fi-
=21	=21	=21	=21	=21	=21	=21	=21	=21	=21
4F\]	.	4c\]	.	4f\]	.	1r	.	4a/]	.
4F\	-e-	4c\	-e-	4f\	-e-	.	.	4a/	-e-
2D\	-ri	2d\	-ri	2f\	-ri	.	.	2a/	-ri
=22	=22	=22	=22	=22	=22	=22	=22	=22	=22
1G	po-	1B-	po-	2d\	po-	1r	.	1b-	po-
.	.	.	.	2e\	.	.	.	.	.
=23	=23	=23	=23	=23	=23	=23	=23	=23	=23
!!pagebreak:original
1F	-test,	1c	-test,	1f	-test,	1r	.	1a	-test,
=24	=24	=24	=24	=24	=24	=24	=24	=24	=24
[1BB-	tran-	[1d	tran-	[1f	tran-	1r	.	1r	.
=25	=25	=25	=25	=25	=25	=25	=25	=25	=25
2BB-/]	.	2d\]	.	2f\]	.	1r	.	[1f	tran-
2C/	-se-	2c\	-se-	2e\	-se-	.	.	.	.
=26	=26	=26	=26	=26	=26	=26	=26	=26	=26
2D\	-at	2.B-\	-at	2d\	-at	1r	.	2f/]	.
2E\	a	.	.	2G/	a	.	.	2g/	-se-
.	.	4B-\	a	.	.	.	.	.	.
=27	=27	=27	=27	=27	=27	=27	=27	=27	=27
[1F	me	[1A	me	[1c	me	1r	.	2a/	-at
.	.	.	.	.	.	.	.	2b-\	a
=28	=28	=28	=28	=28	=28	=28	=28	=28	=28
1F]	.	1A]	.	1c]	.	1r	.	2cc\	me
.	.	.	.	.	.	.	.	[2c/	tran-
=29	=29	=29	=29	=29	=29	=29	=29	=29	=29
1r	.	1r	.	2A/	tran-	1r	.	2c/]	.
.	.	.	.	2B-\	-se-	.	.	2d/	-se-
=30	=30	=30	=30	=30	=30	=30	=30	=30	=30
1C	ca-	1G	ca-	2c\	-at	1r	.	2.e/	-at
.	.	.	.	2c\	a	.	.	.	.
.	.	.	.	.	.	.	.	4f/	a
=31	=31	=31	=31	=31	=31	=31	=31	=31	=31
1GG	-lix	1B-	-lix	1d	me	1r	.	1g	me
=32	=32	=32	=32	=32	=32	=32	=32	=32	=32
1D	i-	2.A/	i-	2d\	ca-	1r	.	2f/	ca-
.	.	.	.	2d\	-lix	.	.	2f/	-lix
.	.	4G/	.	.	.	.	.	.	.
=33	=33	=33	=33	=33	=33	=33	=33	=33	=33
[1D	.	[1F	.	[1A	i-	1r	.	[1f	i-
=34	=34	=34	=34	=34	=34	=34	=34	=34	=34
!!linebreak:original
1D]	.	1F]	.	2A/]	.	1r	.	1f]	.
.	.	.	.	2Bn\	.	.	.	.	.
=35	=35	=35	=35	=35	=35	=35	=35	=35	=35
[1C	-ste:	[1G	-ste:	[1c	-ste:	1r	.	[1e	-ste:
=36	=36	=36	=36	=36	=36	=36	=36	=36	=36
1C]	.	1G]	.	1c]	.	1r	.	1e]	.
=37||	=37||	=37||	=37||	=37||	=37||	=37||	=37||	=37||	=37||
1F	Spi-	1A	Spi-	1c	Spi-	1r	.	1f	Spi-
=38	=38	=38	=38	=38	=38	=38	=38	=38	=38
2F\	-ri-	2A/	-ri-	2c\	-ri-	1r	.	2f/	-ri-
2F\	-tus	2A/	-tus	2c\	-tus	.	.	2f/	-tus
=39	=39	=39	=39	=39	=39	=39	=39	=39	=39
1F	qui-	[1A	qui-	1c	qui-	1r	.	[1f	qui-
=40	=40	=40	=40	=40	=40	=40	=40	=40	=40
2D\	.	2A/]	.	1d	-dem	1r	.	2f/]	.
2G\	-dem	2Bn\	-dem	.	.	.	.	2d/	-dem
=41	=41	=41	=41	=41	=41	=41	=41	=41	=41
2G\	prom-	2Bni\	prom-	2d\	prom-	1r	.	2g/	prom-
2C/	-ptus	2c\	-ptus	2e\	-ptus	.	.	2g/	-ptus
=42	=42	=42	=42	=42	=42	=42	=42	=42	=42
1F	est,	1c	est,	1f	est,	1r	.	1a	est,
=43	=43	=43	=43	=43	=43	=43	=43	=43	=43
2r	.	1r	.	1r	.	1r	.	2r	.
[2BB-/	ca-	.	.	.	.	.	.	[2d/	ca-
=44	=44	=44	=44	=44	=44	=44	=44	=44	=44
2BB-/]	.	1r	.	1r	.	1r	.	2d/]	.
2BB-/	-ro	.	.	.	.	.	.	2d/	-ro
=45	=45	=45	=45	=45	=45	=45	=45	=45	=45
!!pagebreak:original
[1D	au-	[1F	ca-	[1A	ca-	1r	.	[1f	au-
=46	=46	=46	=46	=46	=46	=46	=46	=46	=46
1D]	.	2F/]	.	2A/]	.	1r	.	1f]	.
.	.	2F/	-ro	2A/	-ro	.	.	.	.
=47	=47	=47	=47	=47	=47	=47	=47	=47	=47
[1C	-tem	1A	au-	[1c	au-	1r	.	[1f	-tem
=48	=48	=48	=48	=48	=48	=48	=48	=48	=48
1C]	.	1G	-tem	1c]	.	1r	.	1f]	.
=49	=49	=49	=49	=49	=49	=49	=49	=49	=49
1D	in-	2F/	in-	2A/	-tem	1r	.	1f	in-
.	.	[2B-\	-fir-	2d\	in-	.	.	.	.
=50	=50	=50	=50	=50	=50	=50	=50	=50	=50
[1F	-fir-	2B-\]	.	[1c	-fir-	1r	.	[1f	-fir-
.	.	4A/	.	.	.	.	.	.	.
.	.	4G/	.	.	.	.	.	.	.
=51	=51	=51	=51	=51	=51	=51	=51	=51	=51
1F]	.	1A	.	1c]	.	1r	.	1f]	.
=52	=52	=52	=52	=52	=52	=52	=52	=52	=52
1BB-	-ma	1B-	-ma	1d	-ma	1r	.	1f	-ma
=53	=53	=53	=53	=53	=53	=53	=53	=53	=53
1C	fi-	[1A	fi-	1r	.	1r	.	1f	fi-
=54	=54	=54	=54	=54	=54	=54	=54	=54	=54
1F	-at	2A/]	.	1c	fi-	1r	.	1f	-at
.	.	[2G/	-at	.	.	.	.	.	.
=55	=55	=55	=55	=55	=55	=55	=55	=55	=55
1E-	vo-	2G/]	.	1B-	-at	1r	.	1g	vo-
.	.	[2B-\	vo-	.	.	.	.	.	.
=56	=56	=56	=56	=56	=56	=56	=56	=56	=56
!!pagebreak:original
1D	-lun-	2B-\]	.	1d	vo-	1r	.	[1f	-lun-
.	.	[2A/	-lun-	.	.	.	.	.	.
=57	=57	=57	=57	=57	=57	=57	=57	=57	=57
1F	-tas	2A/]	.	2c\	-lun-	1r	.	2f/]	.
.	.	2A/	-tas	2c\	-tas	.	.	2f/	-tas
=58	=58	=58	=58	=58	=58	=58	=58	=58	=58
1C	tu-	1G	tu-	1c	tu-	1r	.	2f/	tu-
.	.	.	.	.	.	.	.	2e/	.
=59	=59	=59	=59	=59	=59	=59	=59	=59	=59
[1FF	-a.	[1A	-a.	[1c	-a.	1r	.	[1f	-a.
=60	=60	=60	=60	=60	=60	=60	=60	=60	=60
1FF]	.	1A]	.	1c]	.	1r	.	1f]	.
=61||	=61||	=61||	=61||	=61||	=61||	=61||	=61||	=61||	=61||
1r	.	1r	.	1r	.	1r	.	[1cc	Vi-
=62	=62	=62	=62	=62	=62	=62	=62	=62	=62
1r	.	1r	.	1r	.	1r	.	2cc\]	.
.	.	.	.	.	.	.	.	2cc\	-gi-
=63	=63	=63	=63	=63	=63	=63	=63	=63	=63
1r	.	1r	.	1r	.	1r	.	1cc	-la-
=64	=64	=64	=64	=64	=64	=64	=64	=64	=64
1r	.	1r	.	1r	.	[1cc	Vi-	[1a	-te,
=65	=65	=65	=65	=65	=65	=65	=65	=65	=65
1r	.	1r	.	1r	.	2cc\]	.	1a]	.
.	.	.	.	.	.	2cc\	-gi-	.	.
=66	=66	=66	=66	=66	=66	=66	=66	=66	=66
1r	.	1r	.	[1f	Vi-	1cc	-la-	1r	.
=67	=67	=67	=67	=67	=67	=67	=67	=67	=67
1r	.	1r	.	2f\]	.	[1a	-te,	[1cc	et
.	.	.	.	2f\	-gi-	.	.	.	.
=68	=68	=68	=68	=68	=68	=68	=68	=68	=68
!!linebreak:original
1r	.	1r	.	1f	-la-	1a]	.	2cc\]	.
.	.	.	.	.	.	.	.	2a/	o-
=69	=69	=69	=69	=69	=69	=69	=69	=69	=69
1r	.	1r	.	[1d	-te,	1r	.	[1b-	-ra-
=70	=70	=70	=70	=70	=70	=70	=70	=70	=70
1r	.	1r	.	1d]	.	[1f	et	2b-\]	.
.	.	.	.	.	.	.	.	2a/	-te,
=71	=71	=71	=71	=71	=71	=71	=71	=71	=71
1r	.	1r	.	1r	.	2f/]	.	2r	.
.	.	.	.	.	.	2a/	o-	[2f/	et
=72	=72	=72	=72	=72	=72	=72	=72	=72	=72
1r	.	1r	.	[1c	et	1g	-ra-	2f/]	.
.	.	.	.	.	.	.	.	[2e/	o-
=73	=73	=73	=73	=73	=73	=73	=73	=73	=73
1r	.	1r	.	2c\]	.	1a	-te,	2e/]	.
.	.	.	.	2A/	o-	.	.	[2a/	-ra-
=74	=74	=74	=74	=74	=74	=74	=74	=74	=74
1r	.	1r	.	1B-	-ra-	1r	.	4a/]	.
.	.	.	.	.	.	.	.	8g/L	.
.	.	.	.	.	.	.	.	8f/J	.
.	.	.	.	.	.	.	.	2g/	.
=75	=75	=75	=75	=75	=75	=75	=75	=75	=75
1r	.	1r	.	2A/	-te,	1r	.	[1a	-te,
.	.	.	.	2r	.	.	.	.	.
=76	=76	=76	=76	=76	=76	=76	=76	=76	=76
1r	.	1r	.	1r	.	1f	ut	1a]	.
=77	=77	=77	=77	=77	=77	=77	=77	=77	=77
1r	.	1r	.	1c	ut	2g/	non	1r	.
.	.	.	.	.	.	2a/	in-	.	.
=78	=78	=78	=78	=78	=78	=78	=78	=78	=78
1r	.	1r	.	2d\	non	1b-	-tre-	1r	.
.	.	.	.	2e\	in-	.	.	.	.
=79	=79	=79	=79	=79	=79	=79	=79	=79	=79
1r	.	1r	.	1f	-tre-	2a/	-tis	1r	.
.	.	.	.	.	.	2a/	in	.	.
=80	=80	=80	=80	=80	=80	=80	=80	=80	=80
1r	.	1r	.	2e\	-tis	2g/	ten-	1r	.
.	.	.	.	2d\	in	2f/	-ta-	.	.
=81	=81	=81	=81	=81	=81	=81	=81	=81	=81
!!pagebreak:original
1r	.	1r	.	2c\	ten-	2e/	-ti-	2r	.
.	.	.	.	[2B-\	-ta-	[2d/	-o-	2f/	ut
=82	=82	=82	=82	=82	=82	=82	=82	=82	=82
1r	.	1r	.	2B-\]	.	4d/]	.	2g/	non
.	.	.	.	.	.	4e/	.	.	.
.	.	.	.	2A/	-ti-	[2f/	.	2a/	in-
=83	=83	=83	=83	=83	=83	=83	=83	=83	=83
1r	.	1r	.	1G	-o-	4f/]	.	1b-	-tre-
.	.	.	.	.	.	8e/L	.	.	.
.	.	.	.	.	.	8d/J	.	.	.
.	.	.	.	.	.	2e/	.	.	.
=84	=84	=84	=84	=84	=84	=84	=84	=84	=84
1r	.	1r	.	1F	-nem	2f/	-nem	2a/	-tis
.	.	.	.	.	.	2cc\	in	2a/	in
=85	=85	=85	=85	=85	=85	=85	=85	=85	=85
1r	.	1r	.	2r	.	2b-\	ten-	2g/	ten-
.	.	.	.	2d\	in	[2a/	-ta-	2f/	-ta-
=86	=86	=86	=86	=86	=86	=86	=86	=86	=86
1r	.	1r	.	2c\	ten-	2a/]	.	2e/	-ti-
.	.	.	.	[2B-\	-ta-	4g/	.	[2d/	-o-
.	.	.	.	.	.	4f/	.	.	.
=87	=87	=87	=87	=87	=87	=87	=87	=87	=87
1r	.	1r	.	2B-\]	.	2g/	.	4d/]	.
.	.	.	.	.	.	.	.	4e/	.
.	.	.	.	2A/	-ti-	2a/	-ti-	[2f/	.
=88	=88	=88	=88	=88	=88	=88	=88	=88	=88
1r	.	1r	.	1G	-o-	1b-	-o-	4f/]	.
.	.	.	.	.	.	.	.	8e/L	.
.	.	.	.	.	.	.	.	8d/J	.
.	.	.	.	.	.	.	.	2e/	.
=89	=89	=89	=89	=89	=89	=89	=89	=89	=89
1r	.	1r	.	[1F	-nem.	[1a	-nem.	[1f	-nem.
=90	=90	=90	=90	=90	=90	=90	=90	=90	=90
1r	.	1r	.	1F]	.	1a]	.	1f]	.
!!pagebreak:original
=91||	=91||	=91||	=91||	=91||	=91||	=91||	=91||	=91||	=91||
!!pagebreak:original
1F	Spi-	1A	Spi-	1c	Spi-	1r	.	1f	Spi-
=92	=92	=92	=92	=92	=92	=92	=92	=92	=92
2F\	-ri-	2A/	-ri-	2c\	-ri-	1r	.	2f/	-ri-
2F\	-tus	2A/	-tus	2c\	-tus	.	.	2f/	-tus
=93	=93	=93	=93	=93	=93	=93	=93	=93	=93
1F	qui-	[1A	qui-	1c	qui-	1r	.	[1f	qui-
=94	=94	=94	=94	=94	=94	=94	=94	=94	=94
2D\	.	2A/]	.	1d	-dem	1r	.	2f/]	.
2G\	-dem	2Bn\	-dem	.	.	.	.	2d/	-dem
=95	=95	=95	=95	=95	=95	=95	=95	=95	=95
2G\	prom-	2Bni\	prom-	2d\	prom-	1r	.	2g/	prom-
2C/	-ptus	2c\	-ptus	2e\	-ptus	.	.	2g/	-ptus
=96	=96	=96	=96	=96	=96	=96	=96	=96	=96
1F	est,	1c	est,	1f	est,	1r	.	1a	est,
=97	=97	=97	=97	=97	=97	=97	=97	=97	=97
2r	.	1r	.	1r	.	1r	.	2r	.
[2BB-/	ca-	.	.	.	.	.	.	[2d/	ca-
=98	=98	=98	=98	=98	=98	=98	=98	=98	=98
2BB-/]	.	1r	.	1r	.	1r	.	2d/]	.
2BB-/	-ro	.	.	.	.	.	.	2d/	-ro
=99	=99	=99	=99	=99	=99	=99	=99	=99	=99
[1D	au-	[1F	ca-	[1A	ca-	1r	.	[1f	au-
=100	=100	=100	=100	=100	=100	=100	=100	=100	=100
!!linebreak:original
1D]	.	2F/]	.	2A/]	.	1r	.	1f]	.
.	.	2F/	-ro	2A/	-ro	.	.	.	.
=101	=101	=101	=101	=101	=101	=101	=101	=101	=101
[1C	-tem	1A	au-	[1c	au-	1r	.	[1f	-tem
=102	=102	=102	=102	=102	=102	=102	=102	=102	=102
1C]	.	1G	-tem	1c]	.	1r	.	1f]	.
=103	=103	=103	=103	=103	=103	=103	=103	=103	=103
1D	in-	2F/	in-	2A/	-tem	1r	.	1f	in-
.	.	[2B-\	-fir-	2d\	in-	.	.	.	.
=104	=104	=104	=104	=104	=104	=104	=104	=104	=104
[1F	-fir-	2B-\]	.	[1c	-fir-	1r	.	[1f	-fir-
.	.	4A/	.	.	.	.	.	.	.
.	.	4G/	.	.	.	.	.	.	.
=105	=105	=105	=105	=105	=105	=105	=105	=105	=105
1F]	.	1A	.	1c]	.	1r	.	1f]	.
=106	=106	=106	=106	=106	=106	=106	=106	=106	=106
1BB-	-ma	1B-	-ma	1d	-ma	1r	.	1f	-ma
=107	=107	=107	=107	=107	=107	=107	=107	=107	=107
1C	fi-	[1A	fi-	1r	.	1r	.	1f	fi-
=108	=108	=108	=108	=108	=108	=108	=108	=108	=108
1F	-at	2A/]	.	1c	fi-	1r	.	1f	-at
.	.	[2G/	-at	.	.	.	.	.	.
=109	=109	=109	=109	=109	=109	=109	=109	=109	=109
!!pagebreak:original
1E-	vo-	2G/]	.	1B-	-at	1r	.	1g	vo-
.	.	[2B-\	vo-	.	.	.	.	.	.
=110	=110	=110	=110	=110	=110	=110	=110	=110	=110
1D	-lun-	2B-\]	.	1d	vo-	1r	.	[1f	-lun-
.	.	[2A/	-lun-	.	.	.	.	.	.
=111	=111	=111	=111	=111	=111	=111	=111	=111	=111
1F	-tas	2A/]	.	2c\	-lun-	1r	.	2f/]	.
.	.	2A/	-tas	2c\	-tas	.	.	2f/	-tas
=112	=112	=112	=112	=112	=112	=112	=112	=112	=112
1C	tu-	1G	tu-	1c	tu-	1r	.	2f/	tu-
.	.	.	.	.	.	.	.	2e/	.
=113	=113	=113	=113	=113	=113	=113	=113	=113	=113
[1FF	-a.	[1A	-a.	[1c	-a.	1r	.	[1f	-a.
=114	=114	=114	=114	=114	=114	=114	=114	=114	=114
1FF]	.	1A]	.	1c]	.	1r	.	1f]	.
==	==	==	==	==	==	==	==	==	==
*-	*-	*-	*-	*-	*-	*-	*-	*-	*-
!!!OTL: In monte Oliveti 
!!!COM: Ingegneri, Marc' Antonio
!!!CDT: ca. 1535/36-1592-07-01
!!!TXO: Latin
!!!ODT: 
!!!ARL: Klasztor OO. Paulinów na Jasnej Górze
!!!voices:	5
!!title: @{OTL}, @{GTL}, ed. @{ENC}
!!!pag:
!!!GTL: Responsoria in Hebdomada majore
!!!EFL: 
!!!YEM: Creative Commons CC/BY/NC/SA 4.0
!!!ENC: Marcin Konik
!!!END: 2015-0m-dd
!!!EED: Marcin Konik
!!!EEV: 
!!!ONB: Encoded in vim by Marcin Konik
!!!CharacterEncoding: utf-8
!!!RDF**kern: l=long note in original notation
!!!RDF**kern: i=editorial accidental
!!muse2ps: z14jc180F
